X: 15466
T: Glencar
R: hornpipe
M: 4/4
K: Dmajor
|:DE|F2 FA GFED|FGAF G2 A2|BcdA BAdA|F2 E2 E2 DE|
F2 FA GFED|FGAF G2 A2|BcdA BAdA|F2 D2 D2:|
|:de|f2 fd e2 ec|dcdB A2 A2|BcdA BAdA|F2 E2 E2 de|
f2 fd e2 ec|dcdB A2 A2|BcdA BAdA|F2 D2 D2:|

